X: 10258
T: Doctor O'Connor
R: jig
M: 6/8
K: Cmajor
c2c cdB|cdB c2d|e2e efe|efe e2f|
gfg GBG|fef FAF|ede EGE|dcd BdB|
G2c B2d|c2e B2d|G2g agf|edc dBd|
c2G c2c|d2G d2d|edc f2d|g2G c3||
A2A ABc|dBG GBG|d2d ded|ded efg|
edc c2c|edc g2e|fed a2d|BA^G A3|
=GEC GEC|G3 c3|Tc3 AFc|AFc dcB|
cde def|efg agf|edc BGB|c3 c3||

